packages/foundations/assets/icons/functional/images/maps/navigation_to_right_28.svg

<svg width="28" height="28" viewBox="0 0 28 28" fill="none" xmlns="http://www.w3.org/2000/svg">
<g clip-path="url(#clip0_2213_5405)">
<path fill-rule="evenodd" clip-rule="evenodd" d="M13.5625 9.53752C11.1463 9.53752 9.1875 11.4963 9.1875 13.9125V23.5375C9.1875 24.0208 8.79575 24.4125 8.3125 24.4125C7.82925 24.4125 7.4375 24.0208 7.4375 23.5375V13.9125C7.4375 10.5298 10.1798 7.78752 13.5625 7.78752H17.5683L14.8738 5.09581C14.6996 4.92176 14.6125 4.70904 14.6125 4.45764C14.6125 3.99356 14.9899 3.58752 15.4834 3.58752C15.7156 3.58752 15.9478 3.67452 16.0929 3.84851L20.3706 8.12063C20.4985 8.26474 20.5625 8.46363 20.5625 8.66252C20.5625 8.86554 20.4754 9.09758 20.3012 9.27166L15.9179 13.6515C15.7728 13.7965 15.5406 13.9125 15.3084 13.9125C14.8149 13.9125 14.4375 13.5065 14.4375 13.0424C14.4375 12.8104 14.5246 12.5783 14.6988 12.4042L17.5683 9.53752H13.5625Z" fill="#1A1C1F"/>
</g>
<defs>
<clipPath id="clip0_2213_5405">
<rect width="28" height="28" fill="white"/>
</clipPath>
</defs>
</svg>

<svg xmlns="http://www.w3.org/2000/svg" width="28" height="28" fill="none"><g clip-path="url(#a)"><path fill="#1A1C1F" fill-rule="evenodd" d="M13.563 9.538a4.375 4.375 0 0 0-4.376 4.374v9.626a.875.875 0 1 1-1.75 0v-9.625a6.125 6.125 0 0 1 6.126-6.125h4.005l-2.694-2.692a.87.87 0 0 1-.261-.638c0-.464.377-.87.87-.87a.79.79 0 0 1 .61.26l4.278 4.273a.82.82 0 0 1 .192.542.88.88 0 0 1-.262.609l-4.383 4.38a.9.9 0 0 1-.61.26.873.873 0 0 1-.87-.87.9.9 0 0 1 .26-.638l2.87-2.866z" clip-rule="evenodd"/></g><defs><clipPath id="a"><path fill="#fff" d="M0 0h28v28H0z"/></clipPath></defs></svg>
